public/manufacturers/toyota.svg

<?xml version="1.0" encoding="UTF-8"?>
<svg xmlns="http://www.w3.org/2000/svg" xmlns:xlink="http://www.w3.org/1999/xlink" preserveAspectRatio="xMidYMid Meet" viewBox="0 0 60 39" version="1.1">
<path style=" stroke:none;fill-rule:nonzero;fill:#282830;fill-opacity:1;" d="M 30 0.269531 C 13.585938 0.269531 0.277344 8.878906 0.277344 19.496094 C 0.277344 30.117188 13.585938 38.730469 30 38.730469 C 46.414062 38.730469 59.722656 30.121094 59.722656 19.496094 C 59.722656 8.871094 46.414062 0.269531 30 0.269531 Z M 30 30.476562 C 27.558594 30.476562 25.566406 25.667969 25.441406 19.617188 C 26.910156 19.746094 28.4375 19.816406 30 19.816406 C 31.5625 19.816406 33.089844 19.746094 34.558594 19.617188 C 34.433594 25.664062 32.441406 30.476562 30 30.476562 Z M 25.742188 14.8125 C 26.40625 10.535156 28.0625 7.5 30 7.5 C 31.9375 7.5 33.59375 10.535156 34.257812 14.8125 C 32.894531 14.933594 31.472656 15 30 15 C 28.527344 15 27.105469 14.933594 25.742188 14.8125 Z M 30 3.050781 C 26.8125 3.050781 24.09375 7.824219 23.089844 14.488281 C 17.046875 13.546875 12.828125 11.398438 12.828125 8.902344 C 12.828125 5.535156 20.515625 2.804688 30 2.804688 C 39.484375 2.804688 47.171875 5.535156 47.171875 8.902344 C 47.171875 11.398438 42.953125 13.546875 36.910156 14.488281 C 35.90625 7.824219 33.1875 3.050781 30 3.050781 Z M 4.539062 18.777344 C 4.539062 15.519531 5.792969 12.460938 7.976562 9.835938 C 7.953125 10.019531 7.9375 10.207031 7.9375 10.394531 C 7.9375 14.5 14.09375 18 22.683594 19.289062 C 22.675781 19.585938 22.675781 19.886719 22.675781 20.1875 C 22.675781 27.839844 24.820312 34.320312 27.785156 36.519531 C 14.757812 35.734375 4.539062 28.089844 4.539062 18.777344 Z M 32.214844 36.519531 C 35.179688 34.320312 37.324219 27.839844 37.324219 20.1875 C 37.324219 19.882812 37.320312 19.585938 37.316406 19.289062 C 45.902344 18 52.0625 14.503906 52.0625 10.394531 C 52.0625 10.207031 52.046875 10.019531 52.023438 9.835938 C 54.207031 12.46875 55.460938 15.519531 55.460938 18.777344 C 55.460938 28.089844 45.242188 35.734375 32.214844 36.519531 Z M 32.214844 36.519531 "/>
</svg>

<svg xmlns="http://www.w3.org/2000/svg" preserveAspectRatio="xMidYMid Meet" viewBox="0 0 60 39"><path style="stroke:none;fill-rule:nonzero;fill:#282830;fill-opacity:1" d="M30 .27C13.586.27.277 8.879.277 19.496.277 30.117 13.586 38.73 30 38.73s29.723-8.609 29.723-19.234C59.723 8.871 46.414.27 30 .27Zm0 30.207c-2.441 0-4.434-4.809-4.559-10.86a52.244 52.244 0 0 0 9.118 0c-.125 6.047-2.118 10.86-4.559 10.86Zm-4.258-15.665C26.406 10.535 28.062 7.5 30 7.5c1.938 0 3.594 3.035 4.258 7.313a48.141 48.141 0 0 1-8.516 0ZM30 3.052c-3.188 0-5.906 4.773-6.91 11.437-6.043-.941-10.262-3.09-10.262-5.586 0-3.367 7.688-6.097 17.172-6.097 9.484 0 17.172 2.73 17.172 6.097 0 2.496-4.219 4.645-10.262 5.586C35.906 7.824 33.188 3.051 30 3.051ZM4.54 18.777c0-3.257 1.253-6.316 3.437-8.941-.024.184-.04.371-.04.559 0 4.105 6.157 7.605 14.747 8.894-.008.297-.008.598-.008.898 0 7.653 2.144 14.133 5.11 16.333-13.028-.786-23.247-8.43-23.247-17.743ZM32.214 36.52c2.965-2.2 5.11-8.68 5.11-16.333 0-.304-.005-.601-.009-.898 8.586-1.289 14.746-4.785 14.746-8.894 0-.188-.015-.375-.039-.56 2.184 2.634 3.438 5.685 3.438 8.942 0 9.313-10.219 16.957-23.246 17.743Zm0 0"/></svg>
